flaticon/constructions/log.svg

<svg xmlns="http://www.w3.org/2000/svg" width="32" height="32" viewBox="0 0 24 24">
    <path d="M 2.601562 14.160156 C 2.800781 14.039062 2.878906 13.800781 2.761719 13.601562 C 2.640625 13.398438 2.398438 12.878906 2.398438 12 C 2.398438 11.121094 2.640625 10.601562 2.761719 10.398438 C 2.878906 10.199219 2.800781 9.960938 2.601562 9.839844 C 2.398438 9.761719 2.160156 9.800781 2.039062 10 C 1.921875 10.238281 1.601562 10.921875 1.601562 12 C 1.601562 13.078125 1.921875 13.761719 2.039062 14 C 2.121094 14.121094 2.28125 14.199219 2.398438 14.199219 C 2.480469 14.199219 2.558594 14.199219 2.601562 14.160156 Z M 2.601562 14.160156"/>
    <path d="M 23.679688 9.964844 C 23.671875 9.875 23.640625 9.796875 23.59375 9.734375 C 23.167969 8.679688 22.445312 8 21.601562 8 L 2.398438 8 C 1.078125 8 0 9.761719 0 12 C 0 14.238281 1.039062 16 2.398438 16 L 21.601562 16 C 22.960938 16 24 14.238281 24 12 C 24 11.253906 23.882812 10.558594 23.679688 9.964844 Z M 0.800781 12 C 0.800781 10.121094 1.640625 8.800781 2.398438 8.800781 C 3.160156 8.800781 4 10.121094 4 12 C 4 13.878906 3.160156 15.199219 2.398438 15.199219 C 1.640625 15.199219 0.800781 13.878906 0.800781 12 Z M 21.601562 15.199219 L 3.878906 15.199219 C 4.054688 14.972656 4.210938 14.703125 4.34375 14.398438 L 8 14.398438 C 8.238281 14.398438 8.398438 14.238281 8.398438 14 C 8.398438 13.761719 8.238281 13.601562 8 13.601562 L 4.609375 13.601562 C 4.65625 13.414062 4.695312 13.222656 4.722656 13.023438 C 4.726562 13.019531 4.726562 13.011719 4.726562 13.003906 C 4.734375 12.957031 4.738281 12.910156 4.746094 12.863281 C 4.75 12.835938 4.753906 12.808594 4.757812 12.78125 C 4.761719 12.742188 4.765625 12.703125 4.769531 12.664062 C 4.773438 12.625 4.773438 12.589844 4.777344 12.550781 C 4.78125 12.515625 4.785156 12.484375 4.785156 12.449219 C 4.789062 12.402344 4.789062 12.355469 4.792969 12.308594 C 4.792969 12.28125 4.796875 12.253906 4.796875 12.226562 C 4.796875 12.152344 4.800781 12.078125 4.800781 12 C 4.800781 11.925781 4.796875 11.851562 4.796875 11.777344 C 4.792969 11.734375 4.792969 11.691406 4.789062 11.648438 C 4.789062 11.621094 4.789062 11.597656 4.785156 11.570312 C 4.761719 11.15625 4.703125 10.765625 4.609375 10.398438 L 7.601562 10.398438 C 7.839844 10.398438 8 10.238281 8 10 C 8 9.761719 7.839844 9.601562 7.601562 9.601562 L 4.34375 9.601562 C 4.210938 9.296875 4.054688 9.027344 3.878906 8.800781 L 21.601562 8.800781 C 21.957031 8.800781 22.332031 9.09375 22.632812 9.601562 L 17.199219 9.601562 C 16.960938 9.601562 16.800781 9.761719 16.800781 10 C 16.800781 10.238281 16.960938 10.398438 17.199219 10.398438 L 22.972656 10.398438 C 23.082031 10.753906 23.15625 11.160156 23.1875 11.601562 L 19.601562 11.601562 C 19.359375 11.601562 19.199219 11.761719 19.199219 12 C 19.199219 12.238281 19.359375 12.398438 19.601562 12.398438 L 23.1875 12.398438 C 23.078125 14.0625 22.304688 15.199219 21.601562 15.199219 Z M 21.601562 15.199219"/>
    <path d="M9.199219 10.398438L15.601562 10.398438C15.839844 10.398438 16 10.238281 16 10 16 9.761719 15.839844 9.601562 15.601562 9.601562L9.199219 9.601562C8.960938 9.601562 8.800781 9.761719 8.800781 10 8.800781 10.238281 8.960938 10.398438 9.199219 10.398438zM12.398438 11.601562C12.160156 11.601562 12 11.761719 12 12 12 12.238281 12.160156 12.398438 12.398438 12.398438L13.601562 12.398438C13.839844 12.398438 14 12.238281 14 12 14 11.761719 13.839844 11.601562 13.601562 11.601562zM10.398438 12C10.398438 11.761719 10.238281 11.601562 10 11.601562L6 11.601562C5.761719 11.601562 5.601562 11.761719 5.601562 12 5.601562 12.238281 5.761719 12.398438 6 12.398438L10 12.398438C10.238281 12.398438 10.398438 12.238281 10.398438 12zM14.800781 12C14.800781 12.238281 14.960938 12.398438 15.199219 12.398438L17.601562 12.398438C17.839844 12.398438 18 12.238281 18 12 18 11.761719 17.839844 11.601562 17.601562 11.601562L15.199219 11.601562C14.960938 11.601562 14.800781 11.761719 14.800781 12zM21.199219 13.601562L18 13.601562C17.761719 13.601562 17.601562 13.761719 17.601562 14 17.601562 14.238281 17.761719 14.398438 18 14.398438L21.199219 14.398438C21.441406 14.398438 21.601562 14.238281 21.601562 14 21.601562 13.761719 21.441406 13.601562 21.199219 13.601562zM15.199219 13.601562L10.398438 13.601562C10.160156 13.601562 10 13.761719 10 14 10 14.238281 10.160156 14.398438 10.398438 14.398438L15.199219 14.398438C15.441406 14.398438 15.601562 14.238281 15.601562 14 15.601562 13.761719 15.441406 13.601562 15.199219 13.601562zM15.199219 13.601562"/>
</svg>

<svg xmlns="http://www.w3.org/2000/svg" width="32" height="32" viewBox="0 0 24 24">
    <path d="M2.602 14.16c.199-.12.277-.36.16-.558-.121-.204-.364-.723-.364-1.602 0-.879.243-1.398.364-1.602.117-.199.039-.437-.16-.558-.204-.078-.442-.04-.563.16-.117.238-.437.922-.437 2 0 1.078.32 1.762.437 2a.48.48 0 0 0 .36.2c.081 0 .16 0 .203-.04zm0 0"/>
    <path d="M23.68 9.965a.445.445 0 0 0-.086-.23C23.168 8.68 22.445 8 21.602 8H2.398C1.078 8 0 9.762 0 12s1.04 4 2.398 4h19.204C22.96 16 24 14.238 24 12c0-.746-.117-1.441-.32-2.035zM.8 12c0-1.879.84-3.2 1.598-3.2C3.16 8.8 4 10.122 4 12c0 1.879-.84 3.2-1.602 3.2-.757 0-1.597-1.321-1.597-3.2zm20.802 3.2H3.879a3.75 3.75 0 0 0 .465-.802H8c.238 0 .398-.16.398-.398 0-.238-.16-.398-.398-.398H4.61c.046-.188.085-.38.113-.579.004-.003.004-.011.004-.02.007-.046.011-.093.02-.14l.01-.082.013-.117c.003-.039.003-.074.007-.113.004-.035.008-.067.008-.102.004-.047.004-.094.008-.14 0-.028.004-.055.004-.082 0-.075.004-.149.004-.227 0-.074-.004-.148-.004-.223-.004-.043-.004-.086-.008-.129 0-.027 0-.05-.004-.078a6.13 6.13 0 0 0-.176-1.172h2.993c.238 0 .398-.16.398-.398 0-.238-.16-.398-.398-.398H4.344a3.75 3.75 0 0 0-.465-.801h17.723c.355 0 .73.293 1.03.8H17.2c-.238 0-.398.16-.398.399 0 .238.16.398.398.398h5.774c.109.356.183.762.215 1.204h-3.586c-.243 0-.403.16-.403.398 0 .238.16.398.403.398h3.585c-.109 1.665-.882 2.801-1.585 2.801zm0 0"/>
    <path d="M9.2 10.398h6.402c.238 0 .398-.16.398-.398 0-.238-.16-.398-.398-.398H9.199c-.238 0-.398.16-.398.398 0 .238.16.398.398.398zm0 0M12.398 11.602c-.238 0-.398.16-.398.398 0 .238.16.398.398.398h1.204c.238 0 .398-.16.398-.398 0-.238-.16-.398-.398-.398zm0 0M10.398 12c0-.238-.16-.398-.398-.398H6c-.238 0-.398.16-.398.398 0 .238.16.398.398.398h4c.238 0 .398-.16.398-.398zm0 0M14.8 12c0 .238.16.398.4.398h2.402c.238 0 .398-.16.398-.398 0-.238-.16-.398-.398-.398h-2.403c-.238 0-.398.16-.398.398zm0 0M21.2 13.602H18c-.238 0-.398.16-.398.398 0 .238.16.398.398.398h3.2c.241 0 .402-.16.402-.398 0-.238-.16-.398-.403-.398zm0 0M15.2 13.602h-4.802c-.238 0-.398.16-.398.398 0 .238.16.398.398.398H15.2c.242 0 .403-.16.403-.398 0-.238-.16-.398-.403-.398zm0 0"/>
</svg>
